modules/coreui-icons-brand/icons/mojang.svg

<svg version="1.1" xmlns="http://www.w3.org/2000/svg" width="32" height="32" viewBox="0 0 32 32">
<title>mojang</title>
<path d="M9.213 0c-5.088 0-9.213 4.125-9.213 9.213v22.787h22.787c5.088 0 9.213-4.125 9.213-9.213v-22.787zM22.697 3.459c0.756 0 1.365 3.339 1.365 4.093 0.025 0.771-0.593 1.407-1.365 1.407-0.771 0-1.391-0.636-1.364-1.407 0-0.755 0.615-4.093 1.364-4.093zM19.213 7.328c0.923 0.256 2.776 5.032 4.849 2.959 1.932-1.932 2.735 9.552 2.735 9.552l-2.735-1.365c0 0 0-2.728-4.093-5.457-5.079-3.391-10.923-1.156-10.923 4.088 0 10.713 17.751 6.828 17.751 6.828s-0.005 2.729-2.735 2.729h-16.375c-2.729 0-2.735-2.729-2.735-2.729v-13.645c0-2.735 2.735-2.735 2.735-2.735h5.457c2.729 0 5.459 2.735 5.459 2.735 0-1.989 0.156-2.803 0.437-2.943 0.057-0.027 0.115-0.032 0.172-0.016z"></path>
</svg>

<svg xmlns="http://www.w3.org/2000/svg" width="32" height="32" viewBox="0 0 32 32"><path d="M9.213 0A9.213 9.213 0 000 9.213V32h22.787A9.213 9.213 0 0032 22.787V0zm13.484 3.459c.756 0 1.365 3.339 1.365 4.093a1.363 1.363 0 01-1.365 1.407 1.362 1.362 0 01-1.364-1.407c0-.755.615-4.093 1.364-4.093zm-3.484 3.869c.923.256 2.776 5.032 4.849 2.959 1.932-1.932 2.735 9.552 2.735 9.552l-2.735-1.365s0-2.728-4.093-5.457C14.89 9.626 9.046 11.861 9.046 17.105c0 10.713 17.751 6.828 17.751 6.828s-.005 2.729-2.735 2.729H7.687c-2.729 0-2.735-2.729-2.735-2.729V10.288c0-2.735 2.735-2.735 2.735-2.735h5.457c2.729 0 5.459 2.735 5.459 2.735 0-1.989.156-2.803.437-2.943a.24.24 0 01.172-.016z"/></svg>
